X: 10
T:Rondeau de Casteljaloux
R:Rondeau
C:Gascogne
N:Rondeau
I:abc2nwc
M:6/8
L:1/8
K:G
d||B2G B2d|cBc A2d|B2G B2d|c3A2d|B2G B2d|cBc A2d|B2G B2d|c3B3||
d2d d2d|cdc B3|G2A B2d|cBA B2G|d2d d2d|cdc B3|G2A B2d|cBA G3|]
%%footer $D   Galouvielle-MBe 2005 \nRondeau France
